X: 13852
T: Fourteen Degrees
R: jig
M: 6/8
K: Aminor
AcA GED|A2 A Gcd|AcA GED|D2 D CEG|
AcA GED|A2 A cde|fdc A2 c|1 d3 d2 A:|2 d3d2 e||
fdd gdd|gag fdd|edd ecc|GAc GAc|
eAA aAA|gAA fAA|cef ecA|1 D2 A d2 e:|2 D2 A d2 A||

